public/assets/icons/people.svg

<svg xmlns="http://www.w3.org/2000/svg" width="24" height="24" viewBox="0 0 24 24" fill="none">
  <path fill-rule="evenodd" clip-rule="evenodd" d="M9 1.25C6.37665 1.25 4.25 3.37665 4.25 6C4.25 8.62335 6.37665 10.75 9 10.75C11.6234 10.75 13.75 8.62335 13.75 6C13.75 3.37665 11.6234 1.25 9 1.25ZM5.75 6C5.75 4.20507 7.20507 2.75 9 2.75C10.7949 2.75 12.25 4.20507 12.25 6C12.25 7.79493 10.7949 9.25 9 9.25C7.20507 9.25 5.75 7.79493 5.75 6Z" fill="#877EFF"/>
  <path d="M15 2.25C14.5858 2.25 14.25 2.58579 14.25 3C14.25 3.41421 14.5858 3.75 15 3.75C16.2426 3.75 17.25 4.75736 17.25 6C17.25 7.24264 16.2426 8.25 15 8.25C14.5858 8.25 14.25 8.58579 14.25 9C14.25 9.41421 14.5858 9.75 15 9.75C17.0711 9.75 18.75 8.07107 18.75 6C18.75 3.92893 17.0711 2.25 15 2.25Z" fill="#877EFF"/>
  <path fill-rule="evenodd" clip-rule="evenodd" d="M3.67815 13.5204C5.07752 12.7208 6.96067 12.25 9 12.25C11.0393 12.25 12.9225 12.7208 14.3219 13.5204C15.7 14.3079 16.75 15.5101 16.75 17C16.75 18.4899 15.7 19.6921 14.3219 20.4796C12.9225 21.2792 11.0393 21.75 9 21.75C6.96067 21.75 5.07752 21.2792 3.67815 20.4796C2.3 19.6921 1.25 18.4899 1.25 17C1.25 15.5101 2.3 14.3079 3.67815 13.5204ZM4.42236 14.8228C3.26701 15.483 2.75 16.2807 2.75 17C2.75 17.7193 3.26701 18.517 4.42236 19.1772C5.55649 19.8253 7.17334 20.25 9 20.25C10.8267 20.25 12.4435 19.8253 13.5776 19.1772C14.733 18.517 15.25 17.7193 15.25 17C15.25 16.2807 14.733 15.483 13.5776 14.8228C12.4435 14.1747 10.8267 13.75 9 13.75C7.17334 13.75 5.55649 14.1747 4.42236 14.8228Z" fill="#877EFF"/>
  <path d="M18.1607 13.2674C17.7561 13.1787 17.3561 13.4347 17.2674 13.8393C17.1787 14.2439 17.4347 14.6439 17.8393 14.7326C18.6317 14.9064 19.2649 15.2048 19.6829 15.5468C20.1014 15.8892 20.25 16.2237 20.25 16.5C20.25 16.7507 20.1294 17.045 19.7969 17.3539C19.462 17.665 18.9475 17.9524 18.2838 18.1523C17.8871 18.2717 17.6624 18.69 17.7818 19.0867C17.9013 19.4833 18.3196 19.708 18.7162 19.5886C19.5388 19.3409 20.2743 18.9578 20.8178 18.4529C21.3637 17.9457 21.75 17.2786 21.75 16.5C21.75 15.6352 21.2758 14.912 20.6328 14.3859C19.9893 13.8593 19.1225 13.4783 18.1607 13.2674Z" fill="#877EFF"/>
</svg>

<?xml version="1.0"?>
<svg width="24" height="24" xmlns="http://www.w3.org/2000/svg" xmlns:svg="http://www.w3.org/2000/svg">
 <g class="layer">
  <title>Layer 1</title>
  <path clip-rule="evenodd" d="m9,1.25c-2.62,0 -4.75,2.13 -4.75,4.75c0,2.62 2.13,4.75 4.75,4.75c2.62,0 4.75,-2.13 4.75,-4.75c0,-2.62 -2.13,-4.75 -4.75,-4.75zm-3.25,4.75c0,-1.79 1.46,-3.25 3.25,-3.25c1.79,0 3.25,1.46 3.25,3.25c0,1.79 -1.46,3.25 -3.25,3.25c-1.79,0 -3.25,-1.46 -3.25,-3.25z" fill="#ff0000" fill-rule="evenodd" id="svg_1"/>
  <path d="m15,2.25c-0.41,0 -0.75,0.34 -0.75,0.75c0,0.41 0.34,0.75 0.75,0.75c1.24,0 2.25,1.01 2.25,2.25c0,1.24 -1.01,2.25 -2.25,2.25c-0.41,0 -0.75,0.34 -0.75,0.75c0,0.41 0.34,0.75 0.75,0.75c2.07,0 3.75,-1.68 3.75,-3.75c0,-2.07 -1.68,-3.75 -3.75,-3.75z" fill="#ff0000" id="svg_2"/>
  <path clip-rule="evenodd" d="m3.68,13.52c1.4,-0.8 3.28,-1.27 5.32,-1.27c2.04,0 3.92,0.47 5.32,1.27c1.38,0.79 2.43,1.99 2.43,3.48c0,1.49 -1.05,2.69 -2.43,3.48c-1.4,0.8 -3.28,1.27 -5.32,1.27c-2.04,0 -3.92,-0.47 -5.32,-1.27c-1.38,-0.79 -2.43,-1.99 -2.43,-3.48c0,-1.49 1.05,-2.69 2.43,-3.48zm0.74,1.3c-1.15,0.66 -1.67,1.46 -1.67,2.18c0,0.72 0.52,1.52 1.67,2.18c1.14,0.65 2.75,1.07 4.58,1.07c1.83,0 3.44,-0.42 4.58,-1.07c1.15,-0.66 1.67,-1.46 1.67,-2.18c0,-0.72 -0.52,-1.52 -1.67,-2.18c-1.14,-0.65 -2.75,-1.07 -4.58,-1.07c-1.83,0 -3.44,0.42 -4.58,1.07z" fill="#ff0000" fill-rule="evenodd" id="svg_3"/>
  <path d="m18.16,13.27c-0.4,-0.09 -0.8,0.16 -0.89,0.57c-0.09,0.4 0.16,0.8 0.57,0.89c0.79,0.18 1.42,0.47 1.84,0.82c0.42,0.34 0.57,0.67 0.57,0.95c0,0.25 -0.12,0.55 -0.45,0.85c-0.34,0.31 -0.85,0.6 -1.52,0.8c-0.39,0.12 -0.62,0.54 -0.5,0.94c0.12,0.39 0.54,0.62 0.94,0.5c0.82,-0.25 1.55,-0.63 2.1,-1.14c0.54,-0.5 0.93,-1.17 0.93,-1.95c0,-0.86 -0.47,-1.59 -1.12,-2.11c-0.64,-0.53 -1.51,-0.91 -2.47,-1.12z" fill="#ff0000" id="svg_4"/>
 </g>
</svg>
